icons/2_Variations/The Good Cloud bg.var.svg

<svg width="1024" height="1024" viewBox="0 0 1024 1024" fill="none" xmlns="http://www.w3.org/2000/svg">
<g clip-path="url(#clip0_3_281)">
<path d="M512 1024C794.77 1024 1024 794.77 1024 512C1024 229.23 794.77 0 512 0C229.23 0 0 229.23 0 512C0 794.77 229.23 1024 512 1024Z" fill="#F9DE81"/>
<path d="M577.92 696.89C654.29 726.38 753.92 674.08 766.39 585.1C778.71 496.83 715 441.33 654.28 422.77C648.28 373.55 629.48 339.21 604.28 316.51C576.35 291.38 540.13 280.24 502.39 280.18C460.39 280.18 420.39 301.41 392.81 332.67C368.55 360.16 354.12 395.19 355.43 429.61C310.62 448.07 281.67 478.44 267.18 512.53C242.93 569.58 258.88 638.06 312.31 683.24C326.47 695.24 351.03 706.39 379.97 711.24C422.37 718.32 473.9 712 513.85 678C541.85 654.14 564.62 616.47 573.41 559C573.948 555.508 573.474 551.935 572.044 548.704C570.615 545.473 568.289 542.719 565.343 540.769C562.398 538.818 558.955 537.752 555.422 537.698C551.889 537.643 548.415 538.601 545.41 540.46C520.83 555.6 486.81 554.66 456.41 540.74C452.008 538.993 447.104 539.001 442.709 540.763C438.313 542.525 434.761 545.906 432.785 550.21C430.809 554.513 430.559 559.411 432.088 563.893C433.616 568.375 436.806 572.1 441 574.3C470.09 587.64 501.58 591.46 529.54 585.67C520.62 614.61 506.71 635.46 489.84 649.82C458.92 676.14 418.84 680.22 386.02 674.75C364.83 671.21 346.54 663.8 336.17 655.02C296.01 621.08 282.97 569.89 301.17 527.02C313.53 497.94 340.17 473.13 381.11 459.51C385.341 458.105 388.923 455.218 391.194 451.381C393.465 447.544 394.273 443.015 393.47 438.63C388.25 410.13 400.18 380.19 420.47 357.17C441.15 333.74 470.85 317.17 502.3 317.17C530.82 317.22 558.4 325.02 579.5 344.01C601.1 363.44 615.5 394.26 618.64 438.67C618.923 442.65 620.486 446.433 623.096 449.452C625.705 452.471 629.222 454.564 633.12 455.42C681.8 466.12 739.76 508.14 729.74 579.96C720.55 645.41 647.4 684.07 591.23 662.38C588.964 661.504 586.548 661.084 584.119 661.143C581.691 661.201 579.298 661.737 577.077 662.721C574.855 663.704 572.85 665.115 571.174 666.874C569.498 668.632 568.185 670.704 567.31 672.97C565.542 677.546 565.665 682.637 567.651 687.123C569.637 691.609 573.324 695.122 577.9 696.89H577.92Z" fill="white"/>
</g>
<defs>
<clipPath id="clip0_3_281">
<rect width="1024" height="1024" fill="white"/>
</clipPath>
</defs>
</svg>

<svg xmlns="http://www.w3.org/2000/svg" width="1024" height="1024" fill="none">
   <g clip-path="url(#a)">
      <path fill="#F9DE81" d="M512 1024c282.77 0 512-229.23 512-512S794.77 0 512 0 0 229.23 0 512s229.23 512 512 512Z"/>
      <path fill="#fff" d="M577.92 696.89c76.37 29.49 176-22.81 188.47-111.79 12.32-88.27-51.39-143.77-112.11-162.33-6-49.22-24.8-83.56-50-106.26-27.93-25.13-64.15-36.27-101.89-36.33-42 0-82 21.23-109.58 52.49-24.26 27.49-38.69 62.52-37.38 96.94-44.81 18.46-73.76 48.83-88.25 82.92-24.25 57.05-8.3 125.53 45.13 170.71 14.16 12 38.72 23.15 67.66 28 42.4 7.08 93.93.76 133.88-33.24 28-23.86 50.77-61.53 59.56-119a18.485 18.485 0 0 0-8.067-18.231 18.482 18.482 0 0 0-19.933-.309c-24.58 15.14-58.6 14.2-89 .28A18.49 18.49 0 0 0 441 574.3c29.09 13.34 60.58 17.16 88.54 11.37-8.92 28.94-22.83 49.79-39.7 64.15-30.92 26.32-71 30.4-103.82 24.93-21.19-3.54-39.48-10.95-49.85-19.73-40.16-33.94-53.2-85.13-35-128 12.36-29.08 39-53.89 79.94-67.51a18.49 18.49 0 0 0 12.36-20.88c-5.22-28.5 6.71-58.44 27-81.46 20.68-23.43 50.38-40 81.83-40 28.52.05 56.1 7.85 77.2 26.84 21.6 19.43 36 50.25 39.14 94.66a18.493 18.493 0 0 0 14.48 16.75c48.68 10.7 106.64 52.72 96.62 124.54-9.19 65.45-82.34 104.11-138.51 82.42a18.475 18.475 0 0 0-7.111-1.237 18.474 18.474 0 0 0-7.042 1.578 18.484 18.484 0 0 0-9.767 10.249 18.495 18.495 0 0 0 10.59 23.92h.02Z"/>
   </g>
   <defs>
      <clipPath id="a">
         <path fill="#fff" d="M0 0h1024v1024H0z"/>
      </clipPath>
   </defs>
</svg>
